icons/outline/keyboard-hide.svg

<!--
tags: [computer, laptop, device, type]
category: Devices
version: "1.14"
unicode: "ec7e"
-->
<svg
  xmlns="http://www.w3.org/2000/svg"
  width="24"
  height="24"
  viewBox="0 0 24 24"
  fill="none"
  stroke="currentColor"
  stroke-width="2"
  stroke-linecap="round"
  stroke-linejoin="round"
>
  <path d="M2 3m0 2a2 2 0 0 1 2 -2h16a2 2 0 0 1 2 2v8a2 2 0 0 1 -2 2h-16a2 2 0 0 1 -2 -2zm4 2l0 .01m4 -.01l0 .01m4 -.01l0 .01m4 -.01l0 .01m-12 3.99l0 .01m12 -.01l0 .01m-8 -.01l4 0m-4 10l2 -2l2 2" />
</svg>

<!--
tags: [computer, laptop, device, type]
category: Devices
version: "1.14"
unicode: "ec7e"
-->
<svg
  xmlns="http://www.w3.org/2000/svg"
  width="24"
  height="24"
  viewBox="0 0 24 24"
  fill="none"
  stroke="currentColor"
  stroke-width="2"
  stroke-linecap="round"
  stroke-linejoin="round"
>
    <path d="M2 3m0 2a2 2 0 0 1 2 -2h16a2 2 0 0 1 2 2v8a2 2 0 0 1 -2 2h-16a2 2 0 0 1 -2 -2zM6 7l0 .01M10 7l0 .01M14 7l0 .01M18 7l0 .01M6 11l0 .01M18 11l0 .01M10 11l4 0M10 21l2 -2l2 2" />
</svg>
